packages/core/src/svgs/qtum.svg

<svg width="24" height="24" viewBox="0 0 24 24" fill="none" xmlns="http://www.w3.org/2000/svg">
<g clip-path="url(#clip0_31_16738)">
<path d="M0 0H24V24H0V0Z" fill="#2E9AD0"/>
<path fill-rule="evenodd" clip-rule="evenodd" d="M9.74534 5.56738H13.9261L17.3019 8.03724L18.5833 12.017L17.3456 15.7927L18.8606 17.1872L18.5701 17.5027L17.0829 16.1325L13.8922 18.4331H9.71148L6.33563 15.9602L5.0542 11.981L6.35706 8.0081L9.74534 5.56738ZM17.1836 14.9111L16.7752 11.9822L17.1973 9.11081L18.1329 12.0157L17.1836 14.9111ZM16.6741 8.10881L14.2775 6.35553L15.0789 8.71353L16.6741 8.10881ZM14.9641 9.4751L13.8266 11.981L14.9641 14.4512L16.3149 11.981L14.9641 9.4751ZM16.4358 12.653L15.2486 14.8245L16.8343 15.509L16.4358 12.653ZM16.6672 15.9037L15.0755 15.2167L14.2432 17.6514L16.6672 15.9037ZM13.7572 17.7495L14.6336 15.1845L12.1873 15.4982L13.7572 17.7495ZM12.1929 15.0654L14.6311 14.7525L13.5772 12.464L12.1929 15.0654ZM13.5789 11.4902L14.6349 9.1631L12.1916 8.80138L13.5789 11.4902ZM13.3492 11.9801L11.7986 8.97453L10.0625 11.9797L11.7982 14.894L13.3488 11.9797L13.3492 11.9801ZM11.4279 15.5012L9.8302 17.7765L8.75663 15.1837L11.4279 15.5012ZM8.73991 14.7504L9.8362 12.4365L11.4026 15.0667L8.73991 14.7504ZM9.57777 11.981L8.40906 14.4482L7.11306 11.981L8.40906 9.4781L9.57777 11.981ZM8.3092 8.70795L9.30734 6.41081L6.96434 8.09853L8.3092 8.70795ZM6.41577 9.20424L5.50463 11.9822L6.40034 14.7645L6.6562 11.981L6.41577 9.20424ZM7.01834 12.7228L8.12534 14.8301L6.76591 15.4742L7.01877 12.7228H7.01834ZM7.02091 11.2267L6.78348 8.48724L8.12491 9.09495L7.02091 11.2267ZM6.9352 15.8681L9.29063 17.5935L8.30706 15.2184L6.9352 15.8681ZM10.1941 18.0045H13.4126L11.8089 15.7048L10.1941 18.0045ZM9.86148 6.2111L8.76734 8.72853L11.4258 8.36424L9.86148 6.2111ZM10.2348 5.99595L11.8119 8.16624L13.4289 5.99595H10.2348ZM13.7842 6.23638L12.1955 8.36853L14.6319 8.72938L13.7842 6.23638ZM11.4052 8.79967L8.73606 9.16567L9.83449 11.5185L11.4052 8.79967ZM16.4409 11.3111L15.2525 9.10653L16.8545 8.49881L16.4409 11.3111Z" fill="white"/>
<path d="M10.7229 6.00021C10.7229 6.22754 10.6326 6.44556 10.4719 6.6063C10.3111 6.76705 10.0931 6.85735 9.8658 6.85735C9.63847 6.85735 9.42045 6.76705 9.25971 6.6063C9.09896 6.44556 9.00865 6.22754 9.00865 6.00021C9.00865 5.77288 9.09896 5.55486 9.25971 5.39412C9.42045 5.23337 9.63847 5.14307 9.8658 5.14307C10.0931 5.14307 10.3111 5.23337 10.4719 5.39412C10.6326 5.55486 10.7229 5.77288 10.7229 6.00021ZM14.5715 6.00021C14.5715 6.22754 14.4812 6.44556 14.3205 6.6063C14.1597 6.76705 13.9417 6.85735 13.7144 6.85735C13.487 6.85735 13.269 6.76705 13.1083 6.6063C12.9475 6.44556 12.8572 6.22754 12.8572 6.00021C12.8572 5.77288 12.9475 5.55486 13.1083 5.39412C13.269 5.23337 13.487 5.14307 13.7144 5.14307C13.9417 5.14307 14.1597 5.23337 14.3205 5.39412C14.4812 5.55486 14.5715 5.77288 14.5715 6.00021ZM6.42865 9.00021C6.65598 9.00021 6.874 8.9099 7.03475 8.74916C7.19549 8.58841 7.2858 8.37039 7.2858 8.14307C7.2858 7.91574 7.19549 7.69772 7.03475 7.53698C6.874 7.37623 6.65598 7.28592 6.42865 7.28592C6.20133 7.28592 5.98331 7.37623 5.82256 7.53698C5.66182 7.69772 5.57151 7.91574 5.57151 8.14307C5.57151 8.37039 5.66182 8.58841 5.82256 8.74916C5.98331 8.9099 6.20133 9.00021 6.42865 9.00021ZM16.2858 8.14307C16.2858 8.37039 16.3761 8.58841 16.5368 8.74916C16.6976 8.9099 16.9156 9.00021 17.1429 9.00021C17.3703 9.00021 17.5883 8.9099 17.749 8.74916C17.9098 8.58841 18.0001 8.37039 18.0001 8.14307C18.0001 7.91574 17.9098 7.69772 17.749 7.53698C17.5883 7.37623 17.3703 7.28592 17.1429 7.28592C16.9156 7.28592 16.6976 7.37623 16.5368 7.53698C16.3761 7.69772 16.2858 7.91574 16.2858 8.14307ZM8.5788 9.85735C8.80613 9.85735 9.02414 9.76705 9.18489 9.6063C9.34563 9.44556 9.43594 9.22754 9.43594 9.00021C9.43594 8.77288 9.34563 8.55486 9.18489 8.39412C9.02414 8.23337 8.80613 8.14307 8.5788 8.14307C8.35147 8.14307 8.13345 8.23337 7.97271 8.39412C7.81196 8.55486 7.72165 8.77288 7.72165 9.00021C7.72165 9.22754 7.81196 9.44556 7.97271 9.6063C8.13345 9.76705 8.35147 9.85735 8.5788 9.85735ZM14.1361 9.00021C14.1361 9.22754 14.2264 9.44556 14.3871 9.6063C14.5479 9.76705 14.7659 9.85735 14.9932 9.85735C15.2206 9.85735 15.4386 9.76705 15.5993 9.6063C15.7601 9.44556 15.8504 9.22754 15.8504 9.00021C15.8504 8.77288 15.7601 8.55486 15.5993 8.39412C15.4386 8.23337 15.2206 8.14307 14.9932 8.14307C14.7659 8.14307 14.5479 8.23337 14.3871 8.39412C14.2264 8.55486 14.1361 8.77288 14.1361 9.00021ZM11.7858 9.42878C12.0131 9.42878 12.2311 9.33847 12.3919 9.17773C12.5526 9.01698 12.6429 8.79897 12.6429 8.57164C12.6429 8.34431 12.5526 8.12629 12.3919 7.96555C12.2311 7.8048 12.0131 7.7145 11.7858 7.7145C11.5585 7.7145 11.3405 7.8048 11.1797 7.96555C11.019 8.12629 10.9287 8.34431 10.9287 8.57164C10.9287 8.79897 11.019 9.01698 11.1797 9.17773C11.3405 9.33847 11.5585 9.42878 11.7858 9.42878ZM9.8658 17.1431C10.0931 17.1431 10.3111 17.2334 10.4719 17.3941C10.6326 17.5549 10.7229 17.7729 10.7229 18.0002C10.7229 18.2275 10.6326 18.4456 10.4719 18.6063C10.3111 18.767 10.0931 18.8574 9.8658 18.8574C9.63847 18.8574 9.42045 18.767 9.25971 18.6063C9.09896 18.4456 9.00865 18.2275 9.00865 18.0002C9.00865 17.7729 9.09896 17.5549 9.25971 17.3941C9.42045 17.2334 9.63847 17.1431 9.8658 17.1431ZM13.7144 17.1431C13.9417 17.1431 14.1597 17.2334 14.3205 17.3941C14.4812 17.5549 14.5715 17.7729 14.5715 18.0002C14.5715 18.2275 14.4812 18.4456 14.3205 18.6063C14.1597 18.767 13.9417 18.8574 13.7144 18.8574C13.487 18.8574 13.269 18.767 13.1083 18.6063C12.9475 18.4456 12.8572 18.2275 12.8572 18.0002C12.8572 17.7729 12.9475 17.5549 13.1083 17.3941C13.269 17.2334 13.487 17.1431 13.7144 17.1431ZM7.2858 15.8574C7.2858 15.63 7.19549 15.412 7.03475 15.2513C6.874 15.0905 6.65598 15.0002 6.42865 15.0002C6.20133 15.0002 5.98331 15.0905 5.82256 15.2513C5.66182 15.412 5.57151 15.63 5.57151 15.8574C5.57151 16.0847 5.66182 16.3027 5.82256 16.4634C5.98331 16.6242 6.20133 16.7145 6.42865 16.7145C6.65598 16.7145 6.874 16.6242 7.03475 16.4634C7.19549 16.3027 7.2858 16.0847 7.2858 15.8574ZM17.1429 15.0002C16.9156 15.0002 16.6976 15.0905 16.5368 15.2513C16.3761 15.412 16.2858 15.63 16.2858 15.8574C16.2858 16.0847 16.3761 16.3027 16.5368 16.4634C16.6976 16.6242 16.9156 16.7145 17.1429 16.7145C17.3703 16.7145 17.5883 16.6242 17.749 16.4634C17.9098 16.3027 18.0001 16.0847 18.0001 15.8574C18.0001 15.63 17.9098 15.412 17.749 15.2513C17.5883 15.0905 17.3703 15.0002 17.1429 15.0002ZM18.0001 17.6008C18.0001 17.3735 18.0904 17.1554 18.2511 16.9947C18.4119 16.8339 18.6299 16.7436 18.8572 16.7436C19.0846 16.7436 19.3026 16.8339 19.4633 16.9947C19.6241 17.1554 19.7144 17.3735 19.7144 17.6008C19.7144 17.8281 19.6241 18.0461 19.4633 18.2069C19.3026 18.3676 19.0846 18.4579 18.8572 18.4579C18.6299 18.4579 18.4119 18.3676 18.2511 18.2069C18.0904 18.0461 18.0001 17.8281 18.0001 17.6008ZM8.57837 14.1431C8.8057 14.1431 9.02371 14.2334 9.18446 14.3941C9.34521 14.5549 9.43551 14.7729 9.43551 15.0002C9.43551 15.2275 9.34521 15.4456 9.18446 15.6063C9.02371 15.767 8.8057 15.8574 8.57837 15.8574C8.35104 15.8574 8.13302 15.767 7.97228 15.6063C7.81153 15.4456 7.72123 15.2275 7.72123 15.0002C7.72123 14.7729 7.81153 14.5549 7.97228 14.3941C8.13302 14.2334 8.35104 14.1431 8.57837 14.1431ZM14.1361 15.0002C14.1361 14.7729 14.2264 14.5549 14.3871 14.3941C14.5479 14.2334 14.7659 14.1431 14.9932 14.1431C15.2206 14.1431 15.4386 14.2334 15.5993 14.3941C15.7601 14.5549 15.8504 14.7729 15.8504 15.0002C15.8504 15.2275 15.7601 15.4456 15.5993 15.6063C15.4386 15.767 15.2206 15.8574 14.9932 15.8574C14.7659 15.8574 14.5479 15.767 14.3871 15.6063C14.2264 15.4456 14.1361 15.2275 14.1361 15.0002ZM13.5001 11.1431C13.2728 11.1431 13.0547 11.2334 12.894 11.3941C12.7332 11.5549 12.6429 11.7729 12.6429 12.0002C12.6429 12.2275 12.7332 12.4456 12.894 12.6063C13.0547 12.767 13.2728 12.8574 13.5001 12.8574C13.7274 12.8574 13.9454 12.767 14.1062 12.6063C14.2669 12.4456 14.3572 12.2275 14.3572 12.0002C14.3572 11.7729 14.2669 11.5549 14.1062 11.3941C13.9454 11.2334 13.7274 11.1431 13.5001 11.1431ZM10.7328 12.0002C10.7328 11.7729 10.6425 11.5549 10.4817 11.3941C10.321 11.2334 10.103 11.1431 9.87565 11.1431C9.64833 11.1431 9.43031 11.2334 9.26956 11.3941C9.10882 11.5549 9.01851 11.7729 9.01851 12.0002C9.01851 12.2275 9.10882 12.4456 9.26956 12.6063C9.43031 12.767 9.64833 12.8574 9.87565 12.8574C10.103 12.8574 10.321 12.767 10.4817 12.6063C10.6425 12.4456 10.7328 12.2275 10.7328 12.0002ZM16.4658 11.1431C16.2385 11.1431 16.0205 11.2334 15.8597 11.3941C15.699 11.5549 15.6087 11.7729 15.6087 12.0002C15.6087 12.2275 15.699 12.4456 15.8597 12.6063C16.0205 12.767 16.2385 12.8574 16.4658 12.8574C16.6931 12.8574 16.9111 12.767 17.0719 12.6063C17.2326 12.4456 17.3229 12.2275 17.3229 12.0002C17.3229 11.7729 17.2326 11.5549 17.0719 11.3941C16.9111 11.2334 16.6931 11.1431 16.4658 11.1431ZM7.9428 12.0002C7.9428 11.7729 7.85249 11.5549 7.69175 11.3941C7.531 11.2334 7.31298 11.1431 7.08565 11.1431C6.85833 11.1431 6.64031 11.2334 6.47956 11.3941C6.31882 11.5549 6.22851 11.7729 6.22851 12.0002C6.22851 12.2275 6.31882 12.4456 6.47956 12.6063C6.64031 12.767 6.85833 12.8574 7.08565 12.8574C7.31298 12.8574 7.531 12.767 7.69175 12.6063C7.85249 12.4456 7.9428 12.2275 7.9428 12.0002ZM18.3987 11.1431C18.1713 11.1431 17.9533 11.2334 17.7926 11.3941C17.6318 11.5549 17.5415 11.7729 17.5415 12.0002C17.5415 12.2275 17.6318 12.4456 17.7926 12.6063C17.9533 12.767 18.1713 12.8574 18.3987 12.8574C18.626 12.8574 18.844 12.767 19.0047 12.6063C19.1655 12.4456 19.2558 12.2275 19.2558 12.0002C19.2558 11.7729 19.1655 11.5549 19.0047 11.3941C18.844 11.2334 18.626 11.1431 18.3987 11.1431ZM6.00994 12.0002C6.00994 11.7729 5.91963 11.5549 5.75889 11.3941C5.59814 11.2334 5.38013 11.1431 5.1528 11.1431C4.92547 11.1431 4.70745 11.2334 4.54671 11.3941C4.38596 11.5549 4.29565 11.7729 4.29565 12.0002C4.29565 12.2275 4.38596 12.4456 4.54671 12.6063C4.70745 12.767 4.92547 12.8574 5.1528 12.8574C5.38013 12.8574 5.59814 12.767 5.75889 12.6063C5.91963 12.4456 6.00994 12.2275 6.00994 12.0002ZM11.7858 14.5716C12.0131 14.5716 12.2311 14.6619 12.3919 14.8227C12.5526 14.9834 12.6429 15.2015 12.6429 15.4288C12.6429 15.6561 12.5526 15.8741 12.3919 16.0349C12.2311 16.1956 12.0131 16.2859 11.7858 16.2859C11.5585 16.2859 11.3405 16.1956 11.1797 16.0349C11.019 15.8741 10.9287 15.6561 10.9287 15.4288C10.9287 15.2015 11.019 14.9834 11.1797 14.8227C11.3405 14.6619 11.5585 14.5716 11.7858 14.5716Z" fill="white"/>
</g>
<defs>
<clipPath id="clip0_31_16738">
<rect width="24" height="24" fill="white"/>
</clipPath>
</defs>
</svg>

<svg xmlns="http://www.w3.org/2000/svg" width="24" height="24" fill="none" viewBox="0 0 24 24"><g clip-path="url(#a)"><path fill="#2E9AD0" d="M0 0h24v24H0z"/><path fill="#fff" fill-rule="evenodd" d="M9.745 5.567h4.181l3.376 2.47 1.281 3.98-1.237 3.776 1.515 1.394-.29.316-1.488-1.37-3.19 2.3H9.71L6.336 15.96l-1.282-3.979 1.303-3.973zm7.439 9.344-.409-2.929.422-2.871.936 2.905zm-.51-6.802-2.396-1.753.8 2.358zm-1.71 1.366-1.137 2.506 1.137 2.47 1.35-2.47zm1.472 3.178-1.187 2.172 1.585.684zm.231 3.25-1.592-.686-.832 2.434zm-2.91 1.847.877-2.565-2.447.313zm-1.564-2.685 2.438-.312-1.054-2.289zm1.386-3.575 1.056-2.327-2.443-.362zm-.23.49L11.8 8.975l-1.736 3.005 1.735 2.914zm-1.921 3.521L9.83 17.776l-1.073-2.592zm-2.688-.75 1.096-2.314 1.567 2.63zm.838-2.77-1.169 2.467-1.296-2.467L8.41 9.478zM8.309 8.708l.998-2.297-2.343 1.688zm-1.893.496-.911 2.778.895 2.783.256-2.784zm.602 3.519 1.107 2.107-1.36.644zm.003-1.496-.238-2.74 1.342.608zm-.086 4.641 2.356 1.725-.984-2.375zm3.26 2.137h3.218l-1.604-2.3zM9.86 6.21 8.767 8.73l2.659-.365zm.374-.215 1.577 2.17 1.617-2.17zm3.55.24-1.59 2.133 2.437.36zM11.404 8.8l-2.669.366 1.098 2.352zm5.036 2.511-1.188-2.204 1.602-.608z" clip-rule="evenodd"/><path fill="#fff" d="M10.723 6a.857.857 0 1 1-1.715 0 .857.857 0 0 1 1.715 0m3.848 0a.857.857 0 1 1-1.714 0 .857.857 0 0 1 1.715 0M6.43 9a.857.857 0 1 0 0-1.714.857.857 0 0 0 0 1.714m9.857-.857a.857.857 0 1 0 1.714 0 .857.857 0 0 0-1.714 0M8.579 9.857a.857.857 0 1 0 0-1.714.857.857 0 0 0 0 1.714M14.136 9a.857.857 0 1 0 1.715 0 .857.857 0 0 0-1.715 0m-2.35.429a.857.857 0 1 0 0-1.715.857.857 0 0 0 0 1.715m-1.92 7.714a.857.857 0 1 1 0 1.715.857.857 0 0 1 0-1.715m3.848 0a.857.857 0 1 1 0 1.715.857.857 0 0 1 0-1.715m-6.428-1.286a.857.857 0 1 0-1.714 0 .857.857 0 0 0 1.714 0M17.143 15a.857.857 0 1 0 0 1.714.857.857 0 0 0 0-1.714M18 17.6a.857.857 0 1 1 1.715 0 .857.857 0 0 1-1.715 0m-9.422-3.457a.857.857 0 1 1 0 1.715.857.857 0 0 1 0-1.715m5.558.857a.857.857 0 1 1 1.715 0 .857.857 0 0 1-1.715 0m-.636-3.857a.857.857 0 1 0 0 1.715.857.857 0 0 0 0-1.715M10.733 12a.857.857 0 1 0-1.714 0 .857.857 0 0 0 1.714 0m5.733-.857a.857.857 0 1 0 0 1.715.857.857 0 0 0 0-1.715M7.943 12a.857.857 0 1 0-1.715 0 .857.857 0 0 0 1.715 0m10.456-.857a.857.857 0 1 0 0 1.714.857.857 0 0 0 0-1.714M6.009 12a.857.857 0 1 0-1.714 0 .857.857 0 0 0 1.715 0m5.777 2.572a.857.857 0 1 1 0 1.714.857.857 0 0 1 0-1.714"/></g><defs><clipPath id="a"><path fill="#fff" d="M0 0h24v24H0z"/></clipPath></defs></svg>
